X: 16392
T: Gwrachod Llanddona
R: jig
M: 6/8
K: Aminor
|:z|EFE DCD|EFE E2E|ABA GAG|FGF E2E|
EFE DCD|EFE A2B|cBA GAB|A3 A2:|
|:B|cBA BAG|A2E E2E|cBA BAG|A2A e3|
cBA BAG|A2E E2D|CDE cBG|A3 A2:|

